X:14
T:Mitsve-Gedole Freylekhs
Z:Jack Campin, http://www.campin.me.uk
F:http://www.campin.me.uk/Music/EdinburghKlezmer.abc
C:German Goldenshteyn
M:2/4
L:1/8
Q:1/4=120
K:DMin
       A,D- DF|A2 A2|A,D- DF|G2 G2|FG- GF|FE ED|   F4-|F4 |
       A,D- DF|A2 A2|A,D- DF|G2 G2|FG- GF|FE ED|   D4-|D4:|
|:     cd-  dc|cB BA|A2   d2|D4   |cd- dc|f2 e2|   d4-|d4 |
       cd-  dc|cB BA|c2   c2|G3  F|AG  GF|FE ED|[1 D4-|D4:|\
                                                [2 D4-|D ||
|:AB=B|cB   BA|cB BA|cB   BA|AG GF|A2  B2|c2 d2|   c4-|c
  AB=B|cB   BA|cB BA|cB   BA|AG GF|FG- GF|AG FE|[1 D4-|D :|\
                                                [2 D4-|D4|]
